svg/bomb.svg

<svg xmlns="http://www.w3.org/2000/svg" viewBox="0 0 24 24"><path d="M11.25 6a3.25 3.25 0 0 1 3.25-3.25A3.25 3.25 0 0 1 17.75 6c0 .42.33.75.75.75s.75-.33.75-.75v-.75h1.5V6a2.25 2.25 0 0 1-2.25 2.25A2.25 2.25 0 0 1 16.25 6a1.75 1.75 0 0 0-1.75-1.75A1.75 1.75 0 0 0 12.75 6H14v1.29c2.89.86 5 3.54 5 6.71a7 7 0 0 1-7 7 7 7 0 0 1-7-7c0-3.17 2.11-5.85 5-6.71V6zM22 6h2v1h-2zm-3-2V2h1v2zm1.91.38 1.42-1.42.71.71-1.42 1.42z"/></svg>

<?xml version="1.0" encoding="UTF-8"?><!DOCTYPE svg PUBLIC "-//W3C//DTD SVG 1.1//EN" "http://www.w3.org/Graphics/SVG/1.1/DTD/svg11.dtd"><svg xmlns="http://www.w3.org/2000/svg" xmlns:xlink="http://www.w3.org/1999/xlink" version="1.1" id="mdi-bomb" width="24" height="24" viewBox="0 0 24 24"><path d="M11.25,6A3.25,3.25 0 0,1 14.5,2.75A3.25,3.25 0 0,1 17.75,6C17.75,6.42 18.08,6.75 18.5,6.75C18.92,6.75 19.25,6.42 19.25,6V5.25H20.75V6A2.25,2.25 0 0,1 18.5,8.25A2.25,2.25 0 0,1 16.25,6A1.75,1.75 0 0,0 14.5,4.25A1.75,1.75 0 0,0 12.75,6H14V7.29C16.89,8.15 19,10.83 19,14A7,7 0 0,1 12,21A7,7 0 0,1 5,14C5,10.83 7.11,8.15 10,7.29V6H11.25M22,6H24V7H22V6M19,4V2H20V4H19M20.91,4.38L22.33,2.96L23.04,3.67L21.62,5.09L20.91,4.38Z" /></svg>
